X:1
T:Sonata No. 8 "Pathétique"
T:Sonata No. 8 "Pathétique"
T:2nd Movement - Op. 13 Arranged for Guitar Duo
T:Ludwig van Beethoven Arr: J. J. Olson 
T:public domain - Mutopia-2015/11/09-2064
T:public domain - Mutopia-2015/11/09-2064
T:public domain - Mutopia-2015/11/09-2064
T:public domain - Mutopia-2015/11/09-2064
T:public domain - Mutopia-2015/11/09-2064
T:public domain - Mutopia-2015/11/09-2064
C:Ludwig van Beethoven Arr: J. J. Olson
Z:public domain - Mutopia-2015/11/09-2064
%%score { ( 1 2 ) ( 3 4 5 ) }
L:1/8
Q:1/4=30
M:2/4
K:G
V:1 treble transpose=-12 nm="Guitar I"
V:2 treble transpose=-12 
V:3 treble transpose=-12 nm="Guitar II"
V:4 treble transpose=-12 
V:5 treble transpose=-12 
V:1
"^Adagio cantabile""^II""^A" !0!B2 !1!A2 | !2!d3"^I" !1!c | !0!B"^II"!2!d!2!g!4!a | %3
w: = E *|||
"^(II)" !2!d3 !4!^d | !4!e2 A3/2"^I"(B/4c/4) | !3!d2 !1!^G2 | !1!c2"^II" .!3!B/.!1!A/.!4!G/.!3!F/ | %7
w: ||||
"^(II)" !3!!1![FA]2 !0!G (3.!0!B/"^VII".!1!d/.!2!g/ |"^B""^B_VII" !1!b2 !4!a2 | !4!d'3 !2!c' | %10
w: |||
"^b_VII" !1!b"^VII"!4!d'"^b_XII\nG\n"!4!g'"^XII\nA\n"!4!a' |"^b_X" !1!d'3 !3!^d' | %12
w: ||
"^(X)" !4!e'2 a3/2"^VII"(!1!b/4!2!c'/4) |"^(VII)" !4!d'2 !3!^g2 | %14
w: ||
"^b_V" !0!!4![A,c']2 .!3!b/.!1!a/.!4!g/.!3!f/ |"^III" !4!b2 !1!g z3/4 B/4 | %16
w: ||
"^C""^XII" !1!b2- b/"^G"!3!g'/"^F♯"!2!f'/"^E"!1!e'/ |"^B" !4!b'2- b'/"^G"!4!g'/"^F♯"!3!f'/!1!e'/ | %18
w: ||
 !2!b2- b/"^G"!4!g'/"^F♯"!3!f'/"^E"!1!e'/ |"^IX" !2!d'!1!^c'- !turn!c'"^E"!4!e'/>!2!d'/ | %20
w: ||
 !2!d'2"^VI" !turn!!4!e3/2!3!g/4!2!b/4 | %21
w: |
({!1!^a!2!b!4!^c')} !2!!2!b/4"^X"!1!=a/4"^F♯"!4!f'/-f'/"^E""^IX"!4!e'/4!2!d'/4 !1!c'/4!4!b/4!2!a/4!1!^g/4!4!b/4!2!a/4!4!=g/4!1!e/4 | %22
w: |
"^VIII" !1!d z/"^II" !1!A/ !3!F/!1!A/!3!F/!4!D/ | %23
w: |
"^D""_cresc." (!4!D/!3!^C/)"^I"(!4!C/!2!B,/) (!2!B,/!1!^A,/)(!1!A,/=A,/) | %24
w: |
 !0![A,D] z z"^II" !1!A/>!2!d/ | %25
w: |
"^(II)""_cresc." (!2!d/!1!^c/)(!1!c/!0!B/) (!3!B/!2!^A/)(!2!A/!1!=A/) |!<(! !4!!3!!1![DFA]4-!<)! | %27
w: ||
!>(! [DFA]4!>)! |"^E""^(II)"!p! !0!B2 !1!A2 | !2!d3"^I" !1!c | !0!B"^II"!2!d!2!g!4!a | %31
w: ||||
"^(II)" !2!d3 !4!^d | !4!e2 A3/2"^I"(!0!B/4!1!c/4) | !3!d2 ^G2 | %34
w: |||
"^(I)" !1!c2"^II" .!3!B/.!1!A/.!4!G/.!3!F/ | !3!!1![FA]2 !0!G !2!d | %36
w: ||
[K:Bb]"^F"!pp! !1!g!4!b!3!a!1!g |"^b_VII" ^f!2!c'"^III" z2 |"^b_III" !1!g!4!b!3!a!1!g | %39
w: |||
"^b_II" !3!g!1!^f (3!3![^FAd]/[FAd]/[FAd]/ (3[FAd]/[FAd]/[FAd]/ | %40
w: |
"^b_II" !1!g"_cresc."!4!b!3!a!1!g |"^B_VI" !1!f- (3f/!2!d/!3!B/ b- (3b/!4!g/!3!e/ | %42
w: ||
"^B_VIII" !4!e'- (3e'/!1!c'/!3!a/"^(VIII)" !4!b"^VII" !2!!3!!1![FBd] | %43
w: |
"^III" (3!3!!1!!2![GBe]/[GB]/[GB]/ (3[GB]/[GB]/[GB]/"_decresc." (3[GB]/[GB]/[GB]/ (3[GB]/[GB]/[GB]/ | %44
w: |
"^G"!pp! !2!e!1!g!4!f!2!e |"^b_III" !1!d!2!_a z2 |"^b_III" !2!e!1!g!2!e!1!d |"^XI" !1!^c3 c | %48
w: ||||
 ^c3 c |"^X""_cresc." !1!=c3 ^c |[K:G]"^H""^II"!p! !0!B2 !1!A2 | !2!d3"^I" !1!c | %52
w: ||||
"^(I)\n" !0!B"^II"!2!d!2!g!4!a | !2!d3 !4!^d | !4!e2 A3/2"^I"!0!B/4!1!c/4 |"^(I)" !3!d2 !1!^G2 | %56
w: ||||
 !1!c2"^III" (3!4!c/"^II"!4!B/!1!A/ (3!1!A/!4!G/!3!F/ | %57
w: |
 !3!!1![FA]2 G (3.!0!!1!B/.!1!d/"^VII".!2!g/ |"^I""^B_VII" !1!b2 !4!a2 |"^VII" !4!d'3 !2!c' | %60
w: |||
"^b_VII\n\n" !1!b"^VII"!4!d'"^G"!4!g'"^A"!4!a' |"^b_X" !1!d'3 !3!^d' | %62
w: ||
 !4!e'2"^VII" !3!a3/2"^I"!1!b/4!2!c'/4 | !4!d'2 !3!^g2 | %64
w: ||
"^b_V" !4!c'2 (3!4!c'/!3!b/!1!a/ (3a/!4!g/!3!f/ |"^III"!pp! !2!!1![Bg] z z !1!d/>!2!^d/ | %66
w: ||
"^J""^II"!<(! !4!e- (3e/!2!d/!4!c/ (3.!3!B/!<)!!>(!.!1!A/.!4!G/ !3!F/4!4!c/4!1!A/4!3!F/4!>)! | %67
w: |
"^(II)" !turn!!4!G/>!3!B/ z"^VII" !1!!4![dd']>[^d^d'] | %68
w: |
!<(! [ee']- (3[ee']/[=d=d']/.[cc']/!<)!"^IV"!>(! (3.[Bb]/"^VII".[Aa]/.[Gg]/"^IV" (3[Ff]/"^V"[cc']/"^IV"[Ff]/!>)! | %69
w: |
"^V" !1!!4![Gg] z"^VII" (3!2!c'/!1!b/!2!c'/"^VIII" (3!4!e'/!2!d'/!1!c'/ | %70
w: |
"^VII" !1!b z"^V" (3!1!a/!1!^g/!1!a/ (3!4!a/!3!g/!1!a/ | %71
w: |
 !4!=g z"^II\n" (3!1!A/!1!^G/!1!A/ (3!4!c/!3!B/!1!A/ | %72
w: |
!pp! !4!=G/ z/"^V" !3!!1![B,DG]/ z/"^II" !fermata!!2!!1!!0![G,B,G]2 |] %73
w: |
V:2
 !0!G/!4!D/G/D/ !3!F/!4!D/F/D/ | !0!G/!0!D/G/D/ !1!A/D/!2!A/D/ | %2
 !0!G/!0!D/!1!A/D/ !0!B/!0!G/!1!^c/!0!G/ | !3!F/!1!A/F/A/ F/A/F/A/ | %4
 !3!F/!1!A/F/A/ F/!4!D/F/!0!D/ | !0!G/!0!D/G/D/ D/!2!B,/D/B,/ | !2!E/!3!C/E/C/ !2!C/C/C/C/ | %7
 !2!C/!4!D/C/D/ (3.!1!B,/.!0!D/.!0!G/ x | !3!B/!1!d/B/d/ !1!A/d/A/d/ | !1!d/!2!g/d/g/ d/!4!a/d/a/ | %10
 !1!d/!2!g/!1!d/!4!a/ !1!g/!1!b/!1!g/!2!^c'/ | !2!f/!1!a/f/a/ f/a/f/a/ | %12
 !2!f/!1!a/f/a/ f/!3!d/f/!1!d/ | !2!g/!1!d/g/d/ d/!2!B/d/B/ | !1!e/!1!c/e/c/ c/c/c/c/ | %15
 !3!c/!1!d/c/d/ !2!B x | x4 | x4 | x4 | x4 | x4 | x4 | x4 | x4 | x4 | x4 | x4 | x4 | %28
 !0!G/!4!D/G/D/ !3!F/!4!D/F/D/ | !0!G/!0!D/G/D/ !1!A/D/!2!A/D/ | %30
 !0!G/!0!D/!1!A/D/ !0!B/!0!G/!1!^c/!0!G/ | !3!F/!1!A/F/A/ F/A/F/A/ | %32
 !3!F/!1!A/F/A/ F/!4!D/F/!0!D/ | !0!G/!0!D/G/D/ D/!2!B,/D/B,/ | !2!E/!3!C/E/C/ !2!C/C/C/C/ | %35
 !2!C/!4!D/C/D/ !1!B, z | %36
[K:Bb] (3!1![Bd]/[Bd]/[Bd]/ (3[Bd]/[Bd]/[Bd]/ (3[Bd]/[Bd]/[Bd]/ (3[Bd]/[Bd]/[Bd]/ | %37
 (3d/d/d/ (3d/d/d/ (3!3!!1![cd]/[cd]/[cd]/ (3[cd]/[cd]/[cd]/ | %38
 (3!1![Bd]/[Bd]/[Bd]/ (3[Bd]/[Bd]/[Bd]/ (3[Bd]/[Bd]/[Bd]/ x | %39
 (3!1!!2![Ad]/[Ad]/[Ad]/ (3[Ad]/[Ad]/[Ad]/ x2 | %40
 (3!1![Bd]/[Bd]/[Bd]/ (3[Bd]/[Bd]/[Bd]/ (3[Bd]/[Bd]/[Bd]/ (3[Bd]/[Bd]/[Bd]/ | %41
 (3B,/B,/B,/ (3B,/B,/B,/ (3B,/B,/B,/ (3B,/B,/B,/ | (3!1!F/F/F/ (3F/F/F/ (3!1!B/B/B/ x | x4 | %44
 (3!3!!1![GB]/[GB]/[GB]/ (3[GB]/[GB]/[GB]/ (3[GB]/[GB]/[GB]/ (3[GB]/[GB]/[GB]/ | %45
 (3!4!!1![_AB]/[AB]/[AB]/ (3[AB]/[AB]/[AB]/ (3[AB]/[AB]/[AB]/ (3[AB]/[AB]/[AB]/ | %46
 (3!3!!1![GB]/[GB]/[GB]/ (3[GB]/[GB]/[GB]/ (3[GB]/[GB]/[GB]/ (3[GB]/[GB]/ [GB]/ | %47
 (3!0!!3![GB]/[GB]/[GB]/ (3[GB]/[GB]/[GB]/ (3[GB]/[GB]/[GB]/ (3[GB]/[GB]/[GB]/ | %48
 (3[GB]/[GB]/[GB]/ (3[GB]/[GB]/[GB]/ (3[GB]/[GB]/[GB]/ (3[GB]/[GB]/[GB]/ | %49
 (3!0!!3![GA]/[GA]/[GA]/ (3[GA]/[GA]/[GA]/"^I" (3!4!!2![^FA]/[FA]/[FA]/ (3[FA]/[FA]/[FA]/ | %50
[K:G] (3!1!B,/.!4!D/.D/ (3!0!G/.D/.D/ (3!3!F/.D/.D/ (3F/.D/.D/ | %51
 (3!0!G/.!0!D/.D/ (3G/.D/.D/ (3A/.D/.D/ (3!2!A/.D/.D/ | %52
 (3!0!G/.!0!D/.D/ (3!1!A/.D/.D/ (3!0!B/.D/.D/ (3!1!^c/.D/.D/ | %53
 (3!3!F/.!1!A/.A/ (3F/.A/.A/ (3F/.A/.A/ (3!3!F/.A/.A/ | %54
 (3!3!F/!1!A/A/ (3F/A/A/ (3F/!4!D/D/ (3!2!F/!0!D/D/ | %55
 (3!0!G/!0!D/D/ (3G/D/D/ (3D/!2!B,/B,/ (3D/B,/B,/ | %56
 (3!2!E/!3!C/C/ (3E/C/C/ (3!2!F/!2!C/C/ (3C/C/C/ | %57
 (3!2!C/!4!D/D/ (3C/D/D/ (3.!1!B,/.!0!D/.!0!G/ x | %58
 (3!3!B/!1!d/d/ (3B/d/d/ (3!1!A/!1!d/d/ (3A/d/d/ | %59
 (3!1!d/!2!g/g/ (3d/g/g/ (3.d/.!4!a/.a/ (3!1!d/!4!a/a/ | %60
 (3!1!d/!2!g/g/ (3!1!d/a/a/ (3!1!g/b/b/ (3!1!g/!2!^c'/c'/ | %61
 (3!2!f/!1!a/a/ (3f/a/a/ (3f/a/a/ (3f/a/a/ | (3!2!f/!1!a/a/ (3f/a/a/ (3!4!f/!3!d/d/ (3f/d/!1!d/ | %63
 (3!2!g/!1!d/d/ (3g/d/d/ (3d/!2!B/B/ (3d/B/B/ | (3!1!e/!1!c/c/ (3e/c/c/ (3!3!f/c/c/ (3c/c/c/ | x4 | %66
 x4 | x !4!D x2 | x4 | x4 | x2{/b} !3!f2 | x2{/B} !3!F2 | x4 |] %73
V:3
 !4!G,2 !2!C2 | !1!B,2 !3!F,2 | !4!G,!3!F,!1!E,!1!E |"^(II)" !4!D2 !0!D,2 | !2!C2 C2 | %5
w: = D *|||||
"^b_II" !1!B,2 !1!E,2 | !0!A,2 !0!D,2 |"^III" !3!G,!2!F, !3!G, z | %8
w: |||
 !4!G/!0!D/G/D/"^II" !3!F/D/F/D/ | !4!G/D/G/D/ !4!F/!0!D/F/D/ | %10
w: ||
"^III" !4!G/!0!D/"^II"!4!F/!0!D/"^b_II" !1!E/!4!G,/E/G,/ | %11
w: |
"^(II)" !0!D,/!3!F,/!0!A,/!4!D/ !3!F/!1!A/F/A/ | !2!C/!3!F,/!0!A,/!2!C/ !3!F/!1!A/F/C/ | %13
w: ||
"^(II)" !1!B,/!0!D/B,/D/"^b_II" !1!B,/!1!E/B,/E/ |"^(II)" !2!C/!1!E/C/E/ !0!A,/!0!D/A,/D/ | %15
w: ||
"^IV" z/ !3!D/!1!F/D/ !4!G z | z/"^(IV)" B/B/B/ B/B/B/B/ | %17
w: ||
"^b_IV" !3!!1![^DFB]/[DFB]/[DFB]/[DFB]/ !4!!2!!1![EGB]/[EGB]/[EGB]/[EGB]/ | %18
w: |
"^II" !2!!1!!3![FA^d]/[FAd]/[FAd]/[FAd]/"^IV" !2!!1!!3![GBe]/[GBe]/[GBe]/[GBe]/ | %19
w: |
"^VII" !1!!4!!3![Aeg]/[Aeg]/[Aeg]/[Aeg]/ !2![^Aeg]/[Aeg]/"^(VI)"!1![A^cg]/[Acg]/ | %20
w: |
"^b_VII" !3!!1![Bdf]/[Bdf]/[Bdf]/[Bdf]/ !4!!1![Gd]/[Gd]/[Gd]/[Gd]/ | %21
w: |
 z/"^VII" !1![Adf]/[Adf]/[Adf]/ z/"^IV" !4!!1!!2![A,^CG]/[A,CG]/[A,CG]/ |"^(IV)" !2!!1![DF] z z2 | %23
w: ||
"^II" !1!!0![EG][EG] [EG]!3![^CEG] |"^IV" !0!!1![D,F] z/ !4!A,/ !1!F,/A,/F,/!0!D,/ | %25
w: ||
"^I" !0!!2![A,EG]2 !4!!2!!0![^CEG]2 |!p! (!2!E/!1!^D/)(!1!D/!0!=D/)"^III" (!3!D/!2!^C/)(!2!C/D/) | %27
w: ||
 (!3!D/!4!^D/)(!4!D/!3!=D/)"^II"!pp! (!4!D/!3!^C/)(!3!C/!2!=C/) |"^(II)" !1!B,2 !2!C2 | %29
w: ||
 !1!B,2 !3!F,2 | !4!G,!3!F,!1!E,!1!E |"^(II)" !4!D2 !0!D,2 | !2!C2 C2 |"^b_II" !1!B,2 !1!E,2 | %34
w: |||||
"^(II)" !0!A,2 !0!D,2 | !4!G,!3!F, !4!G, z |[K:Bb] !4!!0![G,G]2 z2 | %37
w: |||
"^b_I" (3!1!c/c/c/ (3c/c/!1!c/ (3.!2![Ac]/.!2!A/.=G/ (3.!4!^F/.!2!=E/.D/ |"^II" !4!G z z2 | %39
w: ||
 !4!D-"^I" (3D/!0!D/!4!^C/ (3.D/.!1!E/.D/ (3.!3!=C/.!1!B,/.!0!A,/ |"^III" G, z z2 | %41
w: ||
"^(III)" (3!4!!3!!1![B,DF]/[B,DF]/[B,DF]/"^(III)"(3[B,DF]/[B,DF]/[B,DF]/"^V" (3!1!!3!!2![G,EG]/[G,EG]/[G,EG]/ (3[G,EG]/[A,EG]/[A,EG]/ | %42
w: |
"^(I)" (3!3!!1!!2![CEA]/[CEA]/[CEA]/ (3[CEA]/[CEA]/[CEA]/ (3!1!!0![B,EG]/[B,EG]/[B,EG]/"^b_I" _A | %43
w: |
"^I" !1!!2![E,E] z z2 | !1!!2![E,E]2 z2 | %45
w: ||
 !3!F- (3F/F/!2!=E/ (3.F/.F/.!1!_E/ (3.!0!D/.!3!C/"^b_I".!1!B,/ |"^(I)" !1!E z z2 | %47
w: ||
 (3z/"^II" .!1!=E,/.!4!G,/"^I" (3.!1!B,/.!4!^C/"^II".!1!=E/ G z | %48
w: |
 (3z/"^II" .!1!=E,/.!4!G,/"^I" (3.!1!B,/.!4!^C/"^II".!1!=E/ G z | %49
w: |
 (3z/"^I" .!1!E,/"^II".!4!G,/ !0!A, (3z/ .!0!D,/.!3!^F,/ (3!0!D/D/D/ |[K:G]"^(II)" !4!G,2 !2!C2 | %51
w: ||
 !1!B,2 !3!F,2 |"^II" !4!G,!3!F,!1!C,!1!E | !4!D2 !0!D,2 | !2!C2 C2 |"^b_II" !1!B,2 !1!E,2 | %56
w: |||||
 !0!A,2 !0!D,2 |"^III" !3!G,!2!F, !3!G, z | %58
w: ||
"^(III)" (3(!4!G/!0!D/)D/ (3(G/D/)D/"^II" (3(!3!E/!0!D/)D/ (3(E/D/)D/ | %59
w: |
 (3(!4!G/!0!D/)D/ (3(G/D/)D/ (3(!4!F/D/)D/ (3(F/D/)D/ | %60
w: |
"^(III)" (3(!4!G/!0!D/)D/ (3(!4!F/!0!D/)D/"^II" (3(!1!E/!4!G,/)A,/ (3(E/G,/)G,/ | %61
w: |
"^(II)" (3.D/.F,/.A,/ (3.D/.F/.A/ d2 | (3.C/.F,/.A,/ (3.C/.F/.A/ c2 | !3!B2 !1!E2 | %64
w: |||
"^(II)" !0!A,2 (3!0![D,A,]/!4!D/!4!D/ (3!0!D,/!0!D/!0!D/ | %65
w: |
 (3!4!G,/.!0!D/.D/ (3.D/.D/.D/ (3D/D/D/ (3D/D/D/ | %66
w: |
 (3!2!!0![CD]/[CD]/[CD]/ (3[CD]/[CD]/[CD]/ (3[CD]/[CD]/[CD]/ (3[CD]/[CD]/[CD]/ | %67
w: |
"^(II)" (3!4!!1!!0![G,B,D]/D/D/ (3D/D/D/ (3D/D/D/ (3D/D/D/ | %68
w: |
 (3!0!!2![D,CD]/[D,CD]/[D,CD]/ (3[D,CD]/[D,CD]/[D,CD]/ (3[D,CD]/[D,CD]/[D,CD]/ (3[D,CD]/[D,CD]/[D,CD]/ | %69
w: |
 !4!!1!!0![G,B,D] z !1!!2![df]2 |"^III" !3!!1![Gg] z !3!!4![Dc]2 | !3!!2![GB] z"^II" !0!!2![D,C]2 | %72
w: |||
 !4!!1![G,B,]/ z/ !4!!0![G,D]/ z/ !fermata!!4!!1![G,B,]2 |] %73
w: |
V:4
 x4 | x4 | x4 | x4 | x4 | x4 | x4 | x4 | !3!G,2 !2!C2 | !1!B,2 !3!F,2 | !3!G,!3!F,!1!E,E, | x4 | %12
 x4 | B,2 !1!E,2 | x2 !0!D,2 | !2!G,3 z | x4 | x4 | x4 | x4 | x4 | x4 | x4 | x4 | x4 | x4 | x4 | %27
 x4 | x4 | x4 | x4 | x4 | x4 | x4 | x4 | x4 |[K:Bb] x4 | !2!A- (3A/A/!1!^G/ x2 | x4 | x4 | x4 | %41
 x4 | x3 (3!3!!1![F,B,]/[F,B,]/[F,B,]/ | x4 | x4 | x4 | x4 | x4 | x4 | x3 A, |[K:G] x4 | x4 | x4 | %53
 x4 | x4 | x4 | x4 | x4 | !3!G,2 !2!C2 | !1!B,2 !3!G,2 | !3!G,!3!F,!1!E,E, | x4 | x4 | x4 | x4 | %65
 x4 | x4 | x4 | x4 | x4 | x4 | x4 | x4 |] %73
V:5
 x4 | x4 | x4 | x4 | x4 | x4 | x4 | x4 | x4 | x4 | x4 | x4 | x4 | x4 | x4 | x4 | x4 | x4 | x4 | %19
 x4 | x4 | x4 | x4 | !0!A,4 | x4 | x4 | x4 | x4 | x4 | x4 | x4 | x4 | x4 | x4 | x4 | x4 | %36
[K:Bb] x4 | x4 | x4 | x4 | x4 | x4 | x4 | x4 | x4 | x4 | x4 | x4 | x4 | x4 |[K:G] x4 | x4 | x4 | %53
 x4 | x4 | x4 | x4 | x4 | x4 | x4 | x4 | x4 | x4 | x4 | x4 | x4 | x4 | x4 | x4 | x4 | x4 | x4 | %72
 x4 |] %73

